X:1634
T:Gammel-Husin
T:Springlek i Folldal-variant
M:3/4
L:1/8
Q:1/4=146
K:Dm
(3:2:4A>(a g2e2) f>a|(3geg (3(fd!tenuto!f) e>(^c|(3:2:4d)(^c d2)e2 f>a|(3geg (3(fd!tenuto!f) e>^c|!
(3:2:4A>(a g2e2) f>a|(3geg (3(fd!tenuto!f) e>(d|(3:2:4^c)(A c2)d2 e>f|(3de^c d3z:|!
(3A2 (^c2d2) e>g|(3:2:4f>e d2e2 fe/d/|(3:2:4^c(A c2)d2 e>f|de ^c>(d =B)c/B/|!
(3A2 (^c2d2) e>g|(3:2:4f>e d2e2 fe/d/|(3:2:4^c(A c2)d2 e>f|(3de^c d3z:|]
(:musicend:)

(:music:)
